X: 03013
T: BREAD AND PICKLES
C: Bob McQuillen 11 Feb 77
B: Bob's Note Book 03 #13
%R: jig
%D:1977
Z: 2020 John Chambers <jc:trillian.mit.edu>
M: 6/8
L: 1/8
K: Am
A \
| EAB cBA | def fed | ega ged | cdc c2B |\
| EAB cBA | def fed | efe edc | dcB A2 :|
|: e \
| a2e a2e | aed cBA | a2e a2e | gag geg |\
| a2e a2e | aed cBA | EAB ced | cAA A2 :|
%%begintext align
%% For Ellen Horton and Joan Goodwin,
%% two of the very best, with love always.
%%endtext

%%sep 1 1 500

%%sep 1 1 500

